X: 742
T: Old Horse and Buggy
B: jims roots
M:C|
L:1/8
R: Reel
Q: 1/4=100
K:A
V:1 
%N:Transcription from recording by Jim Kendrick
|:yEF | "A"A2AB cBAB | c2e4 EF | A2AB cBAE | "E"F2E4 EF |
"A"A2AB cBAB | "D"c2ef e2 ef | "E"ecBA EFAc |"A"B/c/B A4 :|
|: A2 | "D"(f2 f)afe de | f2 (a4 a2) | "A"e3f ecBA | !slide!c2e4 ee |
"D"f3a fede | f2 aba2 af | "E"ecBA EFAc | "A"B/c/B A4 :|
% abcbook-tune_id 6298c279f34f18fb0c5a3f2a


% abcbook-boost 0
% abcbook-tablature 
% abcbook-transpose 
% abcbook-lastupdated 1654178425895
% abcbook-soundfonts 
% abcbook-repeats 1


